src/assets/logos/turktelekom.svg

<svg xmlns="http://www.w3.org/2000/svg" xmlns:xlink="http://www.w3.org/1999/xlink" width="144" zoomAndPan="magnify" viewBox="0 0 108 48" height="64" preserveAspectRatio="xMidYMid meet" version="1.0"><defs><clipPath id="0bc3206d45"><path d="M 1.101562 0 L 106.898438 0 L 106.898438 47.019531 L 1.101562 47.019531 Z M 1.101562 0 " clip-rule="nonzero"/></clipPath></defs><g clip-path="url(#0bc3206d45)"><path fill="#ffffff" d="M 1.101562 0 L 106.898438 0 L 106.898438 47.019531 L 1.101562 47.019531 Z M 1.101562 0 " fill-opacity="1" fill-rule="nonzero"/><path fill="#ffffff" d="M 1.101562 0 L 106.898438 0 L 106.898438 47.019531 L 1.101562 47.019531 Z M 1.101562 0 " fill-opacity="1" fill-rule="nonzero"/></g><path fill="#cedc00" d="M 88 14.539062 L 84.355469 16.640625 L 86.179688 17.691406 L 88 16.640625 Z M 88 14.539062 L 84.355469 12.433594 L 88 10.332031 Z M 88 14.539062 " fill-opacity="1" fill-rule="nonzero"/><path fill="#0082ca" d="M 88 14.539062 L 84.355469 16.640625 L 80.714844 14.539062 L 84.355469 12.433594 Z M 88 14.539062 " fill-opacity="1" fill-rule="nonzero"/><path fill="#e63323" d="M 102.578125 10.332031 L 98.933594 8.226562 L 98.933594 12.433594 Z M 102.578125 10.332031 " fill-opacity="1" fill-rule="nonzero"/><path fill="#08bec9" d="M 79.089844 35.476562 L 71.515625 31.105469 L 71.515625 39.84375 Z M 80.710938 18.746094 L 84.355469 16.640625 L 80.710938 14.539062 Z M 80.710938 10.332031 L 80.710938 14.539062 L 84.355469 12.433594 Z M 88 27.15625 L 88 20.847656 L 91.648438 22.949219 L 91.648438 14.539062 L 88 16.640625 L 88 10.332031 L 102.578125 18.746094 Z M 88 27.15625 " fill-opacity="1" fill-rule="nonzero"/><path fill="#002855" d="M 61.203125 32.886719 L 61.203125 29.320312 L 64.296875 31.105469 Z M 75.300781 18.746094 L 75.300781 14.539062 L 78.949219 16.640625 Z M 15.84375 19.484375 L 17.464844 19.484375 L 17.464844 20.757812 L 15.84375 20.757812 Z M 13.203125 19.484375 L 14.824219 19.484375 L 14.824219 20.757812 L 13.203125 20.757812 Z M 16.8125 27.152344 L 16.570312 26.394531 C 16.515625 26.503906 16.078125 27.257812 14.910156 27.257812 C 13.859375 27.257812 12.613281 26.691406 12.613281 24.886719 L 12.613281 21.714844 L 14.246094 21.714844 L 14.246094 24.898438 C 14.246094 25.707031 14.683594 26.066406 15.25 26.066406 C 15.996094 26.066406 16.453125 25.476562 16.453125 24.6875 L 16.453125 21.714844 L 18.054688 21.714844 L 18.054688 27.152344 Z M 12.121094 18.746094 L 12.121094 20.152344 L 10.003906 20.152344 L 10.003906 27.15625 L 8.320312 27.15625 L 8.320312 20.152344 L 6.199219 20.152344 L 6.199219 18.746094 Z M 21.421875 20.910156 L 21.414062 21.828125 C 21.800781 21.035156 22.390625 20.847656 23.496094 20.847656 L 23.496094 22.433594 L 23.292969 22.433594 C 22.234375 22.433594 21.476562 22.964844 21.476562 24.308594 L 21.476562 27.15625 L 19.855469 27.15625 L 19.855469 20.910156 Z M 40.167969 18.746094 L 40.167969 20.152344 L 38.050781 20.152344 L 38.050781 27.15625 L 36.367188 27.15625 L 36.367188 20.152344 L 34.246094 20.152344 L 34.246094 18.746094 Z M 66.808594 26.039062 C 65.699219 26.039062 64.796875 25.136719 64.796875 24.023438 C 64.796875 22.910156 65.699219 22.011719 66.808594 22.011719 C 67.921875 22.011719 68.824219 22.910156 68.824219 24.023438 C 68.824219 25.136719 67.921875 26.039062 66.808594 26.039062 M 66.808594 20.476562 C 64.851562 20.476562 63.265625 22.066406 63.265625 24.023438 C 63.265625 25.980469 64.851562 27.570312 66.808594 27.570312 C 68.769531 27.570312 70.359375 25.980469 70.359375 24.023438 C 70.359375 22.066406 68.769531 20.476562 66.808594 20.476562 M 72.742188 20.910156 L 73.007812 21.738281 C 73.269531 21.195312 74.027344 20.789062 74.738281 20.789062 C 75.46875 20.789062 76.167969 21.222656 76.457031 21.90625 C 76.769531 21.292969 77.441406 20.789062 78.476562 20.789062 C 79.761719 20.789062 80.710938 21.582031 80.710938 23.394531 L 80.710938 27.15625 L 79.089844 27.15625 L 79.089844 23.289062 C 79.089844 22.652344 78.835938 22.097656 78.078125 22.097656 C 77.277344 22.097656 76.925781 22.734375 76.925781 23.550781 L 76.925781 27.15625 L 75.304688 27.15625 L 75.304688 23.203125 C 75.304688 22.652344 75.039062 22.097656 74.304688 22.097656 C 73.5 22.097656 73.136719 22.734375 73.136719 23.539062 L 73.136719 27.15625 L 71.515625 27.15625 L 71.515625 20.910156 Z M 59.101562 18.476562 L 59.105469 23.660156 L 61.191406 20.910156 L 63.125 20.910156 L 60.648438 23.839844 L 63.019531 27.15625 L 61.203125 27.15625 L 59.710938 24.980469 L 59.109375 25.65625 L 59.109375 27.15625 L 57.488281 27.15625 L 57.488281 19.386719 Z M 26.367188 18.476562 L 26.371094 23.660156 L 28.457031 20.910156 L 30.390625 20.910156 L 27.914062 23.839844 L 30.285156 27.15625 L 28.46875 27.15625 L 26.976562 24.980469 L 26.375 25.65625 L 26.375 27.15625 L 24.753906 27.15625 L 24.753906 19.386719 Z M 53.386719 20.789062 C 55.214844 20.789062 56.308594 22 56.308594 23.890625 C 56.308594 24.238281 56.273438 24.527344 56.273438 24.527344 L 51.847656 24.527344 C 51.917969 25.511719 52.785156 25.957031 53.664062 25.957031 C 54.238281 25.957031 54.996094 25.800781 55.453125 25.558594 L 56.007812 26.738281 C 55.335938 27.097656 54.382812 27.277344 53.628906 27.277344 C 51.5 27.277344 50.140625 25.96875 50.140625 24.058594 C 50.140625 22.132812 51.460938 20.789062 53.386719 20.789062 M 54.746094 23.445312 C 54.734375 22.722656 54.324219 22.097656 53.480469 22.097656 C 52.59375 22.097656 51.992188 22.542969 51.824219 23.445312 Z M 48.46875 18.480469 L 48.46875 25.464844 C 48.46875 25.8125 48.671875 25.96875 49.035156 25.96875 C 49.117188 25.96875 49.296875 25.945312 49.417969 25.917969 L 49.417969 27.15625 C 49.09375 27.21875 48.6875 27.277344 48.3125 27.277344 C 47.554688 27.277344 46.847656 26.992188 46.847656 25.570312 L 46.847656 19.386719 Z M 42.6875 20.789062 C 44.515625 20.789062 45.609375 22 45.609375 23.890625 C 45.609375 24.238281 45.570312 24.527344 45.570312 24.527344 L 41.148438 24.527344 C 41.21875 25.511719 42.085938 25.957031 42.964844 25.957031 C 43.539062 25.957031 44.296875 25.800781 44.753906 25.558594 L 45.308594 26.738281 C 44.632812 27.097656 43.683594 27.277344 42.925781 27.277344 C 40.800781 27.277344 39.441406 25.96875 39.441406 24.058594 C 39.441406 22.132812 40.761719 20.789062 42.6875 20.789062 M 44.046875 23.445312 C 44.035156 22.722656 43.625 22.097656 42.78125 22.097656 C 41.894531 22.097656 41.292969 22.542969 41.125 23.445312 Z M 44.046875 23.445312 " fill-opacity="1" fill-rule="nonzero"/><path fill="#0082ca" d="M 91.644531 14.539062 L 88 16.640625 L 88 20.847656 L 91.644531 22.953125 Z M 91.644531 14.539062 " fill-opacity="1" fill-rule="nonzero"/><path fill="#002855" d="M 84.355469 18.746094 L 88 20.847656 L 88 16.640625 Z M 84.355469 18.746094 " fill-opacity="1" fill-rule="nonzero"/></svg>

<svg xmlns="http://www.w3.org/2000/svg" width="144" height="64" viewBox="0 0 108 48"><defs><clipPath id="a"><path d="M1.102 0h105.796v47.02H1.102Zm0 0"/></clipPath></defs><g fill="#fff" clip-path="url(#a)"><path d="M1.102 0h105.796v47.02H1.102Zm0 0"/><path d="M1.102 0h105.796v47.02H1.102Zm0 0"/></g><path fill="#cedc00" d="m88 14.54-3.645 2.1 1.825 1.051 1.82-1.05Zm0 0-3.645-2.106L88 10.332Zm0 0"/><path fill="#0082ca" d="m88 14.54-3.645 2.1-3.64-2.1 3.64-2.106Zm0 0"/><path fill="#e63323" d="m102.578 10.332-3.644-2.105v4.207Zm0 0"/><path fill="#08bec9" d="m79.09 35.477-7.574-4.372v8.739Zm1.62-16.73 3.645-2.106-3.644-2.102Zm0-8.415v4.207l3.645-2.105ZM88 27.156v-6.308l3.648 2.101v-8.41L88 16.641v-6.309l14.578 8.414Zm0 0"/><path fill="#002855" d="M61.203 32.887V29.32l3.094 1.785Zm14.098-14.14v-4.208l3.648 2.102Zm-59.457.737h1.62v1.274h-1.62Zm-2.64 0h1.62v1.274h-1.62Zm3.608 7.668-.242-.757c-.054.109-.492.863-1.66.863-1.05 0-2.297-.567-2.297-2.371v-3.172h1.633v3.183c0 .809.438 1.168 1.004 1.168.746 0 1.203-.59 1.203-1.378v-2.973h1.602v5.437Zm-4.69-8.406v1.406h-2.118v7.004H8.32v-7.004H6.2v-1.406Zm9.3 2.164-.008.918c.387-.793.977-.98 2.082-.98v1.586h-.203c-1.059 0-1.816.53-1.816 1.875v2.847h-1.622V20.91Zm18.746-2.164v1.406h-2.117v7.004h-1.684v-7.004h-2.12v-1.406Zm26.64 7.293a2.015 2.015 0 1 1 .007-4.03 2.015 2.015 0 0 1-.006 4.03m0-5.562a3.546 3.546 0 0 0-3.543 3.546 3.546 3.546 0 1 0 7.093 0 3.55 3.55 0 0 0-3.55-3.546m5.933.433.266.828c.262-.543 1.02-.949 1.73-.949.73 0 1.43.434 1.719 1.117.313-.613.984-1.117 2.02-1.117 1.285 0 2.234.793 2.234 2.606v3.761H79.09V23.29c0-.637-.254-1.191-1.012-1.191-.8 0-1.152.636-1.152 1.453v3.605h-1.621v-3.953c0-.55-.266-1.105-1-1.105-.805 0-1.168.636-1.168 1.441v3.617h-1.621V20.91Zm-13.64-2.433.003 5.183 2.086-2.75h1.934l-2.477 2.93 2.372 3.316h-1.817l-1.492-2.176-.602.676v1.5h-1.62v-7.77Zm-32.735 0 .004 5.183 2.086-2.75h1.934l-2.477 2.93 2.371 3.316H28.47l-1.492-2.176-.602.676v1.5h-1.621v-7.77Zm27.02 2.312c1.828 0 2.922 1.211 2.922 3.102 0 .347-.036.636-.036.636h-4.425c.07.985.937 1.43 1.816 1.43.574 0 1.332-.156 1.79-.398l.554 1.18c-.672.359-1.625.538-2.38.538-2.128 0-3.487-1.308-3.487-3.218 0-1.926 1.32-3.27 3.246-3.27m1.36 2.656c-.013-.722-.423-1.347-1.267-1.347-.886 0-1.488.445-1.656 1.347Zm-6.278-4.965v6.985c0 .348.203.504.566.504.082 0 .262-.024.383-.051v1.238a6 6 0 0 1-1.105.121c-.758 0-1.465-.285-1.465-1.707v-6.183Zm-5.782 2.31c1.829 0 2.922 1.21 2.922 3.1 0 .348-.039.637-.039.637h-4.422c.07.985.938 1.43 1.817 1.43.574 0 1.332-.156 1.789-.398l.555 1.18c-.676.359-1.625.538-2.383.538-2.125 0-3.485-1.308-3.485-3.218 0-1.926 1.32-3.27 3.246-3.27m1.36 2.656c-.012-.722-.422-1.347-1.266-1.347-.886 0-1.488.445-1.656 1.347Zm0 0"/><path fill="#0082ca" d="M91.645 14.54 88 16.64v4.208l3.645 2.105Zm0 0"/><path fill="#002855" d="M84.355 18.746 88 20.848V16.64Zm0 0"/></svg>
